app/images/icon/qualities/5.svg

<svg width="77" height="65" viewBox="0 0 77 65" fill="none" xmlns="http://www.w3.org/2000/svg">
<path fill-rule="evenodd" clip-rule="evenodd" d="M58.0461 18.2761L76.1324 36.3184C77.2892 37.4722 77.2892 39.3427 76.1327 40.4967C74.976 41.6504 73.1008 41.6504 71.9444 40.4967L65.1537 33.7228V62.0455C65.1537 63.6771 63.8276 65 62.1922 65H14.8076C13.1721 65 11.8461 63.6771 11.8461 62.0455V33.7222L5.05556 40.4967C4.47746 41.0739 3.71949 41.3623 2.96153 41.3623C2.20356 41.3623 1.44574 41.0739 0.86749 40.4967C-0.289163 39.3428 -0.289163 37.472 0.86749 36.3184L36.4043 0.865334C37.561 -0.288445 39.4362 -0.288445 40.5925 0.865334L52.1231 12.3677L58.0461 18.2761ZM26.4978 37.1257C26.4978 38.4386 27.5651 39.5035 28.881 39.5035C30.1976 39.5035 31.2643 38.4386 31.2641 37.1257C31.2641 35.8123 30.1976 34.7481 28.881 34.7481C27.5651 34.7481 26.4978 35.8123 26.4978 37.1257ZM34.5585 28.9946C36.0203 28.9946 37.2066 30.1777 37.2066 31.6368C37.2066 33.0959 36.0205 34.2789 34.5585 34.2789C33.0955 34.2789 31.9105 33.0959 31.9105 31.6368C31.9105 30.1777 33.0954 28.9946 34.5585 28.9946ZM32.0146 43.1666C32.0146 46.7399 34.9179 49.6363 38.4996 49.6363C42.0813 49.6363 44.9846 46.7399 44.9846 43.1666C44.9846 39.5937 42.0813 36.6968 38.4996 36.6968C34.9179 36.6968 32.0146 39.5935 32.0146 43.1666ZM42.441 34.2789C40.9787 34.2789 39.7929 33.0959 39.7929 31.6368C39.7929 30.1777 40.9787 28.9946 42.441 28.9946C43.9035 28.9946 45.0894 30.1777 45.0894 31.6368C45.0894 33.096 43.9035 34.2789 42.441 34.2789ZM45.7353 37.1257C45.7353 38.4386 46.8023 39.5035 48.1184 39.5035C49.4344 39.5035 50.5018 38.4386 50.5018 37.1257C50.5018 35.8123 49.4344 34.7481 48.1184 34.7481C46.8022 34.7481 45.7353 35.8123 45.7353 37.1257Z" fill="#FFC59E"/>
</svg>

<svg width="77" height="65" fill="none" xmlns="http://www.w3.org/2000/svg"><path fill-rule="evenodd" clip-rule="evenodd" d="M58.046 18.276l18.086 18.042a2.95 2.95 0 010 4.179 2.967 2.967 0 01-4.188 0l-6.79-6.774v28.322A2.958 2.958 0 0162.192 65H14.808a2.958 2.958 0 01-2.962-2.955V33.722l-6.79 6.775a2.954 2.954 0 01-2.094.865 2.955 2.955 0 01-2.095-.865 2.95 2.95 0 010-4.179L36.404.865a2.967 2.967 0 014.188 0l11.531 11.503 5.923 5.908zm-31.548 18.85a2.38 2.38 0 002.383 2.378 2.38 2.38 0 002.383-2.378 2.38 2.38 0 00-2.383-2.378 2.38 2.38 0 00-2.383 2.378zm8.06-8.131a2.646 2.646 0 012.649 2.642 2.645 2.645 0 01-2.648 2.642 2.645 2.645 0 01-2.648-2.642 2.645 2.645 0 012.648-2.642zm-2.543 14.172c0 3.573 2.903 6.47 6.485 6.47 3.581 0 6.485-2.897 6.485-6.47s-2.904-6.47-6.485-6.47c-3.582 0-6.485 2.896-6.485 6.47zm10.426-8.888a2.645 2.645 0 01-2.648-2.642 2.645 2.645 0 012.648-2.642 2.646 2.646 0 012.648 2.642 2.645 2.645 0 01-2.648 2.642zm3.294 2.847a2.38 2.38 0 002.383 2.378 2.381 2.381 0 002.384-2.378 2.38 2.38 0 00-2.384-2.378 2.38 2.38 0 00-2.383 2.378z" fill="#FFC59E"/></svg>
